X:44
T:Poor Ould Woman
S:Bernie Waugh
R:Reel
M:4/4
L:1/8
K:A minor
|:ed|\
"Am"~c2Bc AcBA|"G"GEGA GABd|"Em"edcB ABcd|"Am"e2A2 Afed|
"Am"~c2Bc AcBA|"G"GEGA GABd|"Em"eg^fa gedB|"Am"~BAAG A2:|
|:e^f|\
"Cm"g2ga gedB|"F"~BAAG G2e^f|"Dm"g2ga "Em"gedc|"F"BcAB "G"G2GB|
"Am"AEAB AcBA|"G"GEGA GABd|"Em"eg^fa gedB|"Am"~BAAG A2:|

